X:1
T:The Light of the World Is Jesus
T:The Light of the World Is Jesus
T:Philip Paul Bliss
T:Philip Paul Bliss, 1875
T:Public Domain Courtesy of the Cyber Hymnal™
C:Philip Paul Bliss
Z:Public Domain
Z:Courtesy of the Cyber Hymnal™
%%score ( 1 2 ) ( 3 4 )
L:1/8
Q:1/4=90
M:6/8
K:F
V:1 treble 
V:2 treble 
V:3 bass 
V:4 bass 
V:1
 C | [CF][CG][CA] [FA]>[FG]F | [EG][DF][EG] [FA]2 [FA] | [Fc]>[Fc][Fc] [Ac]2 [FA] | [FA]3 [EG]2 C | %5
w: 1.~The|whole world was lost In the|dark- ness of sin, The|Light of the world is|Je- sus! Like|
w: 2.~No|dark- ness have we Who in|Je- sus a- bide; The|Light of the world is|Je- sus! We|
w: 3.~Ye|dwell- ers in dark- ness With|sin blind- ed eyes, The|Light of the world is|Je- sus! Go,|
w: 4.~No|need of the sun- light In|Hea- ven we’re told; The|Light of the world is|Je- sus! The|
 [CF][CG][CA] [FA]>[FG]F | [EG][DF][EG] [FA]2 [FA] | [Fc]>[Fc][Fc] [Ac]2 [FA] | [EG]3 F3 || %9
w: sun- shine at noon- day, His|glor- y shone in. The|Light of the world is|Je- sus!|
w: walk in the light When we|fol- low our Guide! The|Light of the world is|Je- sus!|
w: wash, at His bid- ding, And|light will a- rise. The|Light of the world is|Je- sus!|
w: Lamb is the Light In the|ci- ty of gold, The|Light of the world is|Je- sus!|
"^Refrain" [EG][EG][FA] [EG]2 [Ec] | [F=B][FA][FB] [Ec]3 | [EG][EG][FA] [EG]2 [Ec] | %12
w: |||
w: Come to the light, ’tis|shin- ing for thee;|Sweet- ly the light has|
w: |||
w: |||
 [F=B][FA][FB] c3 | [Fc][FA][FB] [Fc]2 [_EA] | [DB][CA][DB] [Fd]2 [Fd] | [Fc]>[Fc][Fc] [Ac]2 [FA] | %16
w: ||||
w: dawned up- on me.|Once I was blind, but|now I can see: The|Light of the world is|
w: ||||
w: ||||
 [EG]3 F2 |] %17
w: |
w: Je- sus!|
w: |
w: |
V:2
 C | x5 F | x6 | x6 | x5 C | x5 F | x6 | x6 | x3 F3 || x6 | x6 | x6 | x3 (E2 G) | x6 | x6 | x6 | %16
 x3 F2 |] %17
V:3
 [F,A,] | [F,A,][F,B,][F,C] [F,C]>[F,B,][F,A,] | [C,C][C,C][C,C] [F,C]2 F, | %3
 [F,A,]>[F,A,][F,A,] [F,C]2 [F,C] | [C,C]3 [C,C]2 [F,A,] | [F,A,][F,B,][F,C] [F,C]>[F,B,][F,A,] | %6
 [C,C][C,C][C,C] [F,C]2 F, | [F,A,][F,A,][F,A,] [F,C]2 [F,C] | [C,B,]3 [F,A,]3 || %9
 [C,C][C,C][C,C] [C,C]2 [C,C] | [G,D][G,D][G,D] [C,C]3 | [C,C][C,C][C,C] [C,C]2 [C,C] | %12
 [G,D][G,D][G,D] (C2 B,) | [F,A,]F,[F,G,] [F,A,]2 [F,C] | [B,,B,][B,,B,][B,,B,] [B,,B,]2 [B,,B,] | %15
 [F,A,]>[F,A,][F,A,] [F,C]2 [F,C] | [C,B,]3 [F,A,]2 |] %17
V:4
 x | x6 | x5 F, | x6 | x6 | x6 | x5 F, | x6 | x6 || x6 | x6 | x6 | x3 C,3 | x6 | x6 | x6 | x5 |] %17

